svg/u1f5d1.svg

<svg viewBox="0 0 128 128" xmlns="http://www.w3.org/2000/svg">
  <g>
    <ellipse cx="63.94" cy="104.89" rx="35" ry="13.61" fill="#B9E4EA"/>
    <path d="M29.98,110.19c0-7.13,15.2-12.04,33.96-12.04s33.96,4.91,33.96,12.04s-15.2,13.53-33.96,13.53 S29.98,117.32,29.98,110.19z" fill="#94D1E0"/>
    <linearGradient id="SVGID_1_" gradientUnits="userSpaceOnUse" x1="64.1107" x2="64.1107" y1="89.9664" y2="147.6283">
      <stop offset="0" stop-color="#82AFC1"/>
      <stop offset="1" stop-color="#2F7889"/>
    </linearGradient>
    <path d="M108.51,32.83l-2.26,12.33l-6.61-6.61l3.44-3.44l-9.75,2.84l0.6,0.6l-8.09,8.09l-6.54-6.54 l-9.63,0.82l-5.72,5.72l-6.2-6.2l-8.96-0.52l-6.72,6.72l-8.09-8.09l0.83-0.83l-9.36-1.98l2.81,2.81l-6.39,6.39L19.63,32.6 l-4.56-2.58l14.51,80.37C30.7,118.02,45.29,124,64.05,124s33.08-5.98,34.51-13.61l14.6-80.45L108.51,32.83z M84.06,110.53 l-6.32-6.32l8.09-8.09l8.09,8.09l0,0l-4.72,4.72C87.58,109.51,85.86,110.04,84.06,110.53z M39.21,109.46l-5.25-5.25l0,0l8.09-8.09 l8.09,8.09l-6.51,6.51C42.09,110.34,40.61,109.91,39.21,109.46z M72.03,104.22l-8.09,8.09l-8.09-8.09l8.09-8.09L72.03,104.22z M66.8,93.27l8.09-8.09l8.09,8.09l-8.09,8.09L66.8,93.27z M52.99,101.36l-8.09-8.09l8.09-8.09l8.09,8.09L52.99,101.36z M52.99,107.07l6.13,6.13c-3.65-0.25-7.33-0.75-10.84-1.43L52.99,107.07z M68.76,113.2l6.13-6.13l4.58,4.58 C75.99,112.39,72.36,112.94,68.76,113.2z M96.07,100.65l-7.38-7.38l8.09-8.09l1.8,1.8L96.07,100.65z M100.67,75.57l-3.89,3.89 l-8.09-8.09l8.09-8.09l5.19,5.19L100.67,75.57z M93.92,82.32l-8.09,8.09l-8.09-8.09l8.09-8.09L93.92,82.32z M74.88,79.47 l-8.09-8.09l8.09-8.09l8.09,8.09L74.88,79.47z M72.03,82.32l-8.09,8.09l-8.09-8.09l8.09-8.09L72.03,82.32z M52.99,79.47l-8.09-8.09 l8.09-8.09l8.09,8.09L52.99,79.47z M50.13,82.32l-8.09,8.09l-8.09-8.09l8.09-8.09L50.13,82.32z M31.1,79.47l-3.72-3.72l-1.33-7.4 l5.05-5.05l8.09,8.09L31.1,79.47z M31.1,85.18l8.09,8.09l-7.35,7.35L29.38,86.9L31.1,85.18z M102.85,63.65l-3.22-3.22l4.67-4.67 L102.85,63.65z M96.78,41.4l8.09,8.09l-8.09,8.09l-8.09-8.09L96.78,41.4z M85.83,52.34l8.09,8.09l-8.09,8.09l-8.09-8.09 L85.83,52.34z M74.88,41.4l8.09,8.09l-8.09,8.09l-8.09-8.09L74.88,41.4z M72.03,60.43l-8.09,8.09l-8.09-8.09l8.09-8.09L72.03,60.43 z M52.99,41.4l8.09,8.09l-8.09,8.09l-8.09-8.09L52.99,41.4z M50.13,60.43l-8.09,8.09l-8.09-8.09l8.09-8.09L50.13,60.43z M31.1,41.4 l8.09,8.09l-8.09,8.09l-8.09-8.09L31.1,41.4z M28.24,60.43l-3.06,3.06l-1.34-7.47L28.24,60.43z" fill="url(#SVGID_1_)"/>
    <radialGradient id="SVGID_2_" cx="65.5303" cy="12.9983" gradientTransform="matrix(1 0 0 0.4505 0 7.1421)" gradientUnits="userSpaceOnUse" r="52.279">
      <stop offset="0.7216" stop-color="#94D1E0"/>
      <stop offset="1" stop-color="#94D1E0" stop-opacity="0"/>
    </radialGradient>
    <path d="M107.47,24.48l-8.06-8.06l2.29-2.29c-1.08-0.97-3.87-1.84-3.87-1.84l-1.27,1.27l-2.07-2.07 c-4.25-1.51-7.07-1.35-7.07-1.35l6.28,6.28l-8.09,8.09l-8.09-8.09l6.66-6.66c-2.61-0.8-5.06-0.66-5.06-0.66l-4.46,4.46L69.5,8.41 l-5.57,0.15l7.86,7.86l-8.09,8.09l-8.09-8.09l7.88-7.88l-5.94,0.22l-4.8,4.8l-4.72-4.72L43,9.51l6.91,6.91l-8.09,8.09l-8.09-8.09 l6.31-6.31c0,0-5.64,0.76-7.28,1.56l-1.89,1.89l-1.18-1.18c0,0-2.25,0.34-4.09,1.63l2.41,2.41l-7.24,7.24c0,0,0.42,1.65,2.81,2.9 l7.29-7.29l8.09,8.09l-4.22,4.22c0,0,2.74,1.55,4.75,0.97l2.33-2.33l5.87,5.87l9.87,0.29l6.15-6.15l5.98,5.98l10.29-0.36l5.62-5.62 l2.5,2.5c2.67,0.26,4.81-0.9,4.81-0.9l-4.45-4.45l8.09-8.09l8.09,8.09C104.64,27.37,107.12,25.86,107.47,24.48z M52.77,35.46 l-8.09-8.09l8.09-8.09l8.09,8.09L52.77,35.46z M74.66,35.46l-8.09-8.09l8.09-8.09l8.09,8.09L74.66,35.46z" fill="url(#SVGID_2_)"/>
    <path d="M64,4C34.17,4,9.99,9.9,9.99,22.74c0,10.24,24.18,18.74,54.01,18.74c29.83,0,54.01-8.5,54.01-18.74 C118.01,11.29,93.83,4,64,4z M64,34.36c-24.01,0-43.47-5.98-43.47-13.35c0-7.37,19.46-11.69,43.47-11.69 c24.01,0,43.47,4.32,43.47,11.69C107.47,28.38,88.01,34.36,64,34.36z" fill="#84B0C1"/>
    <path d="M107.47,15.75c2.07,1.65,3.91,4.42,1.7,6.98c-1.95,2.26-1.41,2.81-0.24,2.51 c2.2-0.56,5.84-3.03,4.61-7.19c-1.25-4.2-8.44-7-13.26-7.99c-1.31-0.27-3.5-0.56-3.89,0C96.01,10.63,102.77,12,107.47,15.75z" fill="#A8E3F0"/>
    <path d="M37.24,35.27c-4.64-0.47-16.02-1.62-22.14-9.69c-2.24-2.96-2.06-7.28,0.44-9.75 c4.34-4.27,10.01-4.41,8.72-3.62c-3.45,2.11-10.3,5.44-4.58,12.31c5.85,7.03,20.26,8.86,22.61,9.22S44.76,36.02,37.24,35.27z" fill="#A8E3F0"/>
  </g>
</svg>

<svg viewBox="0 0 128 128" xmlns="http://www.w3.org/2000/svg">
  <defs>
    <linearGradient id="SVGID_1_" gradientUnits="userSpaceOnUse" x1="64.1107" x2="64.1107" y1="89.9664" y2="147.6283">
      <stop offset="0" stop-color="#82AFC1"/>
      <stop offset="1" stop-color="#2F7889"/>
    </linearGradient>
    <radialGradient id="SVGID_2_" cx="65.5303" cy="28.852018" gradientTransform="matrix(1 0 0 0.4505 0 0)" gradientUnits="userSpaceOnUse" r="52.279">
      <stop offset="0.7216" stop-color="#94D1E0"/>
      <stop offset="1" stop-color="#94D1E0" stop-opacity="0"/>
    </radialGradient>
  </defs>
  <path d="M98.94,104.89 A35 13.61 0 1 1 28.94,104.89 A35 13.61 0 1 1 98.94,104.89 Z" fill="#B9E4EA"/>
  <path d="M29.98,110.19 C29.98,103.06 45.18,98.15 63.94,98.15 C82.7,98.15 97.9,103.06 97.9,110.19 C97.9,117.32 82.7,123.72 63.94,123.72 C45.18,123.72 29.98,117.32 29.98,110.19 Z" fill="#94D1E0"/>
  <path d="M108.51,32.83 L106.25,45.16 L99.64,38.55 L103.08,35.11 L93.33,37.95 L93.93,38.55 L85.84,46.64 L79.3,40.1 L69.67,40.92 L63.95,46.64 L57.75,40.44 L48.79,39.92 L42.07,46.64 L33.98,38.55 L34.81,37.72 L25.45,35.74 L28.26,38.55 L21.87,44.94 L19.63,32.6 L15.07,30.02 L29.58,110.39 C30.7,118.02 45.29,124 64.05,124 C82.81,124 97.13,118.02 98.56,110.39 L113.16,29.94 L108.51,32.83 Z M84.06,110.53 L77.74,104.21 L85.83,96.12 L93.92,104.21 L93.92,104.21 L89.2,108.93 C87.58,109.51 85.86,110.04 84.06,110.53 Z M39.21,109.46 L33.96,104.21 L33.96,104.21 L42.05,96.12 L50.14,104.21 L43.63,110.72 C42.09,110.34 40.61,109.91 39.21,109.46 Z M72.03,104.22 L63.94,112.31 L55.85,104.22 L63.94,96.13 L72.03,104.22 Z M66.8,93.27 L74.89,85.18 L82.98,93.27 L74.89,101.36 L66.8,93.27 Z M52.99,101.36 L44.9,93.27 L52.99,85.18 L61.08,93.27 L52.99,101.36 Z M52.99,107.07 L59.12,113.2 C55.47,112.95 51.79,112.45 48.28,111.77 L52.99,107.07 Z M68.76,113.2 L74.89,107.07 L79.47,111.65 C75.99,112.39 72.36,112.94 68.76,113.2 Z M96.07,100.65 L88.69,93.27 L96.78,85.18 L98.58,86.98 L96.07,100.65 Z M100.67,75.57 L96.78,79.46 L88.69,71.37 L96.78,63.28 L101.97,68.47 L100.67,75.57 Z M93.92,82.32 L85.83,90.41 L77.74,82.32 L85.83,74.23 L93.92,82.32 Z M74.88,79.47 L66.79,71.38 L74.88,63.29 L82.97,71.38 L74.88,79.47 Z M72.03,82.32 L63.94,90.41 L55.85,82.32 L63.94,74.23 L72.03,82.32 Z M52.99,79.47 L44.9,71.38 L52.99,63.29 L61.08,71.38 L52.99,79.47 Z M50.13,82.32 L42.04,90.41 L33.95,82.32 L42.04,74.23 L50.13,82.32 Z M31.1,79.47 L27.38,75.75 L26.05,68.35 L31.1,63.3 L39.19,71.39 L31.1,79.47 Z M31.1,85.18 L39.19,93.27 L31.84,100.62 L29.38,86.9 L31.1,85.18 Z M102.85,63.65 L99.63,60.43 L104.3,55.76 L102.85,63.65 Z M96.78,41.4 L104.87,49.49 L96.78,57.58 L88.69,49.49 L96.78,41.4 Z M85.83,52.34 L93.92,60.43 L85.83,68.52 L77.74,60.43 L85.83,52.34 Z M74.88,41.4 L82.97,49.49 L74.88,57.58 L66.79,49.49 L74.88,41.4 Z M72.03,60.43 L63.94,68.52 L55.85,60.43 L63.94,52.34 L72.03,60.43 Z M52.99,41.4 L61.08,49.49 L52.99,57.58 L44.9,49.49 L52.99,41.4 Z M50.13,60.43 L42.04,68.52 L33.95,60.43 L42.04,52.34 L50.13,60.43 Z M31.1,41.4 L39.19,49.49 L31.1,57.58 L23.01,49.49 L31.1,41.4 Z M28.24,60.43 L25.18,63.49 L23.84,56.02 L28.24,60.43 Z" fill="url(#SVGID_1_)"/>
  <path d="M107.47,24.48 L99.41,16.42 L101.7,14.13 C100.62,13.16 97.83,12.29 97.83,12.29 L96.56,13.56 L94.49,11.49 C90.24,9.98 87.42,10.14 87.42,10.14 L93.7,16.42 L85.61,24.51 L77.52,16.42 L84.18,9.76 C81.57,8.96 79.12,9.1 79.12,9.1 L74.66,13.56 L69.5,8.41 L63.93,8.56 L71.79,16.42 L63.7,24.51 L55.61,16.42 L63.49,8.54 L57.55,8.76 L52.75,13.56 L48.03,8.84 L43,9.51 L49.91,16.42 L41.82,24.51 L33.73,16.42 L40.04,10.11 C40.04,10.11 34.4,10.87 32.76,11.67 L30.87,13.56 L29.69,12.38 C29.69,12.38 27.44,12.72 25.6,14.01 L28.01,16.42 L20.77,23.66 C20.77,23.66 21.19,25.31 23.58,26.56 L30.87,19.27 L38.96,27.36 L34.74,31.58 C34.74,31.58 37.48,33.13 39.49,32.55 L41.82,30.22 L47.69,36.09 L57.56,36.38 L63.71,30.23 L69.69,36.21 L79.98,35.85 L85.6,30.23 L88.1,32.73 C90.77,32.99 92.91,31.83 92.91,31.83 L88.46,27.38 L96.55,19.29 L104.64,27.38 C104.64,27.37 107.12,25.86 107.47,24.48 Z M52.77,35.46 L44.68,27.37 L52.77,19.28 L60.86,27.37 L52.77,35.46 Z M74.66,35.46 L66.57,27.37 L74.66,19.28 L82.75,27.37 L74.66,35.46 Z" fill="url(#SVGID_2_)"/>
  <path d="M64,4 C34.17,4 9.99,9.9 9.99,22.74 C9.99,32.98 34.17,41.48 64,41.48 C93.83,41.48 118.01,32.98 118.01,22.74 C118.01,11.29 93.83,4 64,4 Z M64,34.36 C39.99,34.36 20.53,28.38 20.53,21.01 C20.53,13.64 39.99,9.32 64,9.32 C88.01,9.32 107.47,13.64 107.47,21.01 C107.47,28.38 88.01,34.36 64,34.36 Z" fill="#84B0C1"/>
  <path d="M107.47,15.75 C109.54,17.4 111.38,20.17 109.17,22.73 C107.22,24.99 107.76,25.54 108.93,25.24 C111.13,24.68 114.77,22.21 113.54,18.05 C112.29,13.85 105.1,11.05 100.28,10.06 C98.97,9.79 96.78,9.5 96.39,10.06 C96.01,10.63 102.77,12 107.47,15.75 Z" fill="#A8E3F0"/>
  <path d="M37.24,35.27 C32.6,34.8 21.22,33.65 15.1,25.58 C12.86,22.62 13.04,18.3 15.54,15.83 C19.88,11.56 25.55,11.42 24.26,12.21 C20.81,14.32 13.96,17.65 19.68,24.52 C25.53,31.55 39.94,33.38 42.29,33.74 C44.64,34.1 44.76,36.02 37.24,35.27 Z" fill="#A8E3F0"/>
</svg>
